Obsidian/status/16s/btsync-gui-paused.svg

<svg height="16" width="16" xmlns="http://www.w3.org/2000/svg"><path d="m7.8125 1.0019531c-1.1283831.0292826-2.2663007.3315235-3.3125.9355469-3.3478377 1.932875-4.49537503 6.2146623-2.5625 9.5625 1.932875 3.347838 6.2146623 4.495375 9.5625 2.5625 3.347838-1.932875 4.495375-6.2146623 2.5625-9.5625-1.328852-2.3016384-3.767557-3.56246847-6.25-3.4980469zm-2.8125 1.9980469h2a1.0001 1.0001 0 0 1 .3261719.0566406c.4507822-.061197.9034385-.0607431 1.3476562 0a1.0001 1.0001 0 0 1 .3261719-.0566406h2a1.0001 1.0001 0 0 1 1 1v.5351562l.695312-.4003906-.230468 3.5976563-.464844-.2304688v1.4980469h.892578c-.148137.728725-.458262 1.404885-.892578 1.988281v1.011719a1.0001 1.0001 0 0 1 -1 1h-2a1.0001 1.0001 0 0 1 -.3261719-.056641c-.4507821.061197-.9034385.060744-1.3476562 0a1.0001 1.0001 0 0 1 -.3261719.056641h-2a1.0001 1.0001 0 0 1 -1-1v-.535156l-.6953125.40039.2304687-3.5976559.4648438.2304688v-1.4980469h-.8925781c.1481376-.7287251.4582639-1.4048824.8925781-1.9882812v-1.0117188a1.0001 1.0001 0 0 1 1-1zm0 1v8h2v-8zm4 0v8h2v-8z" fill="#d3dae3"/></svg>

<svg xmlns="http://www.w3.org/2000/svg" width="16" height="16" version="1.1">
 <defs>
  <style id="current-color-scheme" type="text/css">
   .ColorScheme-Text { color:#d3dae3; } .ColorScheme-Highlight { color:#5294e2; }
  </style>
 </defs>
 <path style="fill:currentColor" class="ColorScheme-Text" d="M 7.8125 1.0019531 C 6.6841169 1.0312357 5.5461993 1.3334766 4.5 1.9375 C 1.1521623 3.870375 0.00462497 8.1521623 1.9375 11.5 C 3.870375 14.847838 8.1521623 15.995375 11.5 14.0625 C 14.847838 12.129625 15.995375 7.8478377 14.0625 4.5 C 12.733648 2.1983616 10.294943 0.93753153 7.8125 1.0019531 z M 5 3 L 7 3 A 1.0001 1.0001 0 0 1 7.3261719 3.0566406 C 7.7769541 2.9954436 8.2296104 2.9958975 8.6738281 3.0566406 A 1.0001 1.0001 0 0 1 9 3 L 11 3 A 1.0001 1.0001 0 0 1 12 4 L 12 4.5351562 L 12.695312 4.1347656 L 12.464844 7.7324219 L 12 7.5019531 L 12 9 L 12.892578 9 C 12.744441 9.728725 12.434316 10.404885 12 10.988281 L 12 12 A 1.0001 1.0001 0 0 1 11 13 L 9 13 A 1.0001 1.0001 0 0 1 8.6738281 12.943359 C 8.223046 13.004556 7.7703896 13.004103 7.3261719 12.943359 A 1.0001 1.0001 0 0 1 7 13 L 5 13 A 1.0001 1.0001 0 0 1 4 12 L 4 11.464844 L 3.3046875 11.865234 L 3.5351562 8.2675781 L 4 8.4980469 L 4 7 L 3.1074219 7 C 3.2555595 6.2712749 3.5656858 5.5951176 4 5.0117188 L 4 4 A 1.0001 1.0001 0 0 1 5 3 z M 5 4 L 5 12 L 7 12 L 7 4 L 5 4 z M 9 4 L 9 12 L 11 12 L 11 4 L 9 4 z"/>
</svg>
